X:109
T:Fleur de Mand Regore
M:C
L:1/8
Q:115
R:Reel
K:AMaj
|: "E"EGAG EGBB | "D/E"Aced cAAG | "E"EGAG EGBB | "D/E"Aced cAA2 | "E"E
GAG EGBB |
"D/E"Aced cAAG | "E"EGAG EGBB |1 "D/E"Aced "E"cAA2 :|2
"D/E"Acec "E"defg
||: "A"a4 a2 ga | bAaA "A/C#"gAec | "D"dfed "A"cABc | "Bmi7"defg "E"agfe
| "A"a4 "A/C#"a2 ga | "D"bAaA "A"gAec
| "D"dfed "A"cABc | "E"dcBc "A"B2 A2 :||
